assets/svg/1F4E1.svg

<svg xmlns="http://www.w3.org/2000/svg" viewBox="0 0 64 64" enable-background="new 0 0 64 64"><g fill="#6c6c6d"><path d="m50.01 51.618c-5.428 4.303-19.406-3.504-31.22-17.431-11.816-13.928-16.995-28.704-11.564-33.01 5.426-4.298 19.405 3.506 31.22 17.433 11.811 13.927 16.991 28.702 11.562 33"/><path d="m35.533 52.35c0 6.306-6.586 11.42-14.707 11.42h-6.121c-8.122 0-14.705-5.115-14.705-11.42l0 0c0-6.309 6.583-11.425 14.706-11.425h6.121c8.12 0 14.706 5.116 14.706 11.425l0 0"/></g><path fill="#868686" d="m35.947 49.14c0 6.307-6.587 11.418-14.706 11.418h-6.121c-8.121 0-14.708-5.111-14.708-11.418l0 0c0-6.309 6.586-11.427 14.708-11.427h6.122c8.118 0 14.705 5.118 14.705 11.427l0 0"/><path fill="#767676" d="m27.02 57.28h-6.122c-8.121 0-14.707-5.114-14.707-11.421 0-2.753 1.256-5.279 3.347-7.254-5.354 1.708-9.13 5.793-9.13 10.568 0 6.307 6.586 11.422 14.708 11.422h6.122c4.577 0 8.664-1.627 11.356-4.174-1.715.55-3.598.859-5.574.859"/><path fill="#e7e6e6" d="m45.971 53.596c5.846-4.634-7.283-12.292-18.598-25.631-11.312-13.334-16.51-27.28-22.357-22.649-5.84 4.629-8.187 24.549 3.125 37.884 11.313 13.34 31.992 15.02 37.83 10.396"/><path fill="#cfcfd0" d="m21.547 21.525c.242-.076.463-.093.692-.132-7.906-10.86-12.346-19.943-17.223-16.08-5.84 4.629-8.187 24.549 3.125 37.884 1.12 1.315 2.344 2.483 3.612 3.579-2.499-12.07 3.731-23.353 9.794-25.25"/><path fill="#868686" d="m47.31 50.83c-5.04 3.991-18.01-3.251-28.961-16.17-10.962-12.923-15.772-26.627-10.732-30.618 5.04-3.989 18 3.251 28.967 16.17 10.96 12.919 15.757 26.626 10.726 30.616"/><path fill="#e7e6e6" d="m34.35 20.943c-.839-.804-1.948-1.091-2.49-.642l-14.02 11.773c.667.257 1.198.673 1.597 1.173.717.378 1.252.944 1.603 1.596l13.852-11.628c.542-.452.292-1.47-.546-2.272"/><path fill="#868686" d="m15.09 28.423c0 0 5.719 7.554 8.549 10.183l1.025-1.113c0 0-7.229-8.655-8.02-10.05l-1.556.976"/><path fill="#e7e6e6" d="m39.26 20.18c.17 2.269-1.562 4.23-3.857 4.386-2.302.154-4.301-1.557-4.462-3.826-.164-2.269 1.567-4.23 3.866-4.388 2.292-.154 4.294 1.557 4.453 3.828"/><g fill="#faaf40"><path d="m42.4 16.495c1.959 2.508 2.724 5.511 2.41 8.365 2.312-3.07 2.46-7.291.001-10.42-2.615-3.349-7.287-4.326-11.142-2.574 3.31.265 6.524 1.823 8.722 4.629"/><path d="m47.37 12.238c3.32 4.246 4.614 9.329 4.078 14.164 3.922-5.2 4.172-12.353.023-17.649-4.442-5.67-12.35-7.326-18.876-4.359 5.608.447 11.05 3.086 14.775 7.844"/></g></svg>

<?xml version="1.0" encoding="utf-8"?>
<!-- Generator: Adobe Illustrator 16.0.0, SVG Export Plug-In . SVG Version: 6.00 Build 0)  -->
<!DOCTYPE svg PUBLIC "-//W3C//DTD SVG 1.1//EN" "http://www.w3.org/Graphics/SVG/1.1/DTD/svg11.dtd">
<svg version="1.1" id="Layer_1" xmlns="http://www.w3.org/2000/svg" xmlns:xlink="http://www.w3.org/1999/xlink" x="0px" y="0px"
	 width="64px" height="64px" viewBox="0 0 64 64" enable-background="new 0 0 64 64" xml:space="preserve">
<g>
	<path fill="#6C6C6D" d="M50.009,51.618c-5.428,4.303-19.406-3.504-31.216-17.431C6.977,20.259,1.798,5.483,7.229,1.181
		c5.426-4.298,19.405,3.506,31.218,17.433C50.258,32.541,55.438,47.316,50.009,51.618z"/>
	<path fill="#6C6C6D" d="M35.533,52.349c0,6.306-6.586,11.42-14.707,11.42h-6.121C6.583,63.769,0,58.654,0,52.349l0,0
		c0-6.309,6.583-11.425,14.706-11.425h6.121C28.947,40.924,35.533,46.04,35.533,52.349L35.533,52.349z"/>
	<path fill="#868686" d="M35.947,49.138c0,6.307-6.587,11.418-14.706,11.418H15.12c-8.121,0-14.708-5.111-14.708-11.418l0,0
		c0-6.309,6.586-11.427,14.708-11.427h6.122C29.36,37.711,35.947,42.829,35.947,49.138L35.947,49.138z"/>
	<path fill="#767676" d="M27.024,57.281h-6.122c-8.121,0-14.707-5.114-14.707-11.421c0-2.753,1.256-5.279,3.347-7.254
		c-5.354,1.708-9.13,5.793-9.13,10.568c0,6.307,6.586,11.422,14.708,11.422h6.122c4.577,0,8.664-1.627,11.356-4.174
		C30.883,56.972,29,57.281,27.024,57.281z"/>
	<path fill="#E7E6E6" d="M45.971,53.596c5.846-4.634-7.283-12.292-18.598-25.631C16.061,14.631,10.863,0.685,5.016,5.316
		C-0.824,9.945-3.171,29.865,8.141,43.2C19.454,56.54,40.133,58.221,45.971,53.596z"/>
	<path fill="#CFCFD0" d="M21.547,21.525c0.242-0.076,0.463-0.093,0.692-0.132C14.333,10.533,9.893,1.45,5.016,5.316
		C-0.824,9.945-3.171,29.865,8.141,43.2c1.12,1.315,2.344,2.483,3.612,3.579C9.254,34.707,15.484,23.426,21.547,21.525z"/>
	<path fill="#868686" d="M47.313,50.83c-5.043,3.991-18.006-3.251-28.961-16.17C7.39,21.737,2.58,8.033,7.62,4.042
		c5.038-3.989,18.005,3.251,28.967,16.172C47.547,33.133,52.344,46.84,47.313,50.83z"/>
	<path fill="#E7E6E6" d="M34.351,20.943c-0.839-0.804-1.948-1.091-2.49-0.642L17.845,32.074c0.667,0.257,1.198,0.673,1.597,1.173
		c0.717,0.378,1.252,0.944,1.603,1.596l13.852-11.628C35.439,22.763,35.189,21.745,34.351,20.943z"/>
	<path fill="#868686" d="M15.086,28.423c0,0,5.719,7.554,8.549,10.183l1.025-1.113c0,0-7.229-8.655-8.018-10.046L15.086,28.423z"/>
	<path fill="#E7E6E6" d="M39.263,20.181c0.17,2.269-1.562,4.23-3.857,4.386c-2.302,0.154-4.301-1.557-4.462-3.826
		c-0.164-2.269,1.567-4.23,3.866-4.388C37.102,16.199,39.104,17.91,39.263,20.181z"/>
	<path fill="#FAAF40" d="M42.395,16.495c1.959,2.508,2.724,5.511,2.41,8.365c2.312-3.07,2.46-7.291,0.01-10.42
		c-2.615-3.349-7.287-4.326-11.142-2.574C36.983,12.131,40.197,13.689,42.395,16.495z"/>
	<path fill="#FAAF40" d="M47.372,12.238c3.32,4.246,4.614,9.329,4.078,14.164c3.922-5.2,4.172-12.353,0.023-17.649
		c-4.442-5.67-12.35-7.326-18.876-4.359C38.205,4.841,43.652,7.48,47.372,12.238z"/>
</g>
</svg>
